X:6742
T:Hanter dro
C:Pennec, Tablatures 1
M:3/4
L:1/8
K:C
ee/f/ ed c2|ed/c/ Bd cA|\
ee/f/ ed c2|ed/c/ Bd cA:|\
|:AB/c/ dd e2|de/f/ ag/f/ e2|
cd/e/ fe d2|cB/d/ cB cA|\
AB/c/ dd e2|de/f/ ag/f/ e2|\
cd/e/ fe d2|cB/d/ cB A2:|
